public/images/landing/icon-play.svg

<svg width="101" height="77" viewBox="0 0 101 77" fill="none" xmlns="http://www.w3.org/2000/svg">
<g clip-path="url(#clip0)">
<path d="M96.955 18.1478C96.955 18.1478 96.035 11.1398 93.17 8.06976C89.538 4.02876 85.496 4.00377 83.629 3.77277C70.303 2.74977 50.326 2.74976 50.326 2.74976H50.275C50.275 2.74976 30.297 2.74977 16.971 3.77277C15.104 4.00277 11.063 4.02876 7.43103 8.06976C4.59103 11.1658 3.64503 18.1478 3.64503 18.1478C3.64503 18.1478 2.74902 26.3588 2.74902 34.5698V42.2688C2.74902 50.4788 3.69603 58.6898 3.69603 58.6898C3.69603 58.6898 4.61703 65.6988 7.48103 68.7678C11.113 72.8088 15.845 72.6808 17.968 73.1168C25.59 73.8838 50.324 74.1388 50.324 74.1388C50.324 74.1388 70.327 74.1138 83.653 73.0908C85.52 72.8608 89.561 72.8348 93.193 68.7928C96.033 65.7238 96.979 58.7148 96.979 58.7148C96.979 58.7148 97.925 50.5048 97.925 42.2938V34.5948C97.902 26.3588 96.955 18.1478 96.955 18.1478Z" fill="#38ADA9"/>
<path d="M50.314 76.8888H50.298C49.283 76.8778 25.352 76.6228 17.694 75.8518L17.554 75.8378L17.417 75.8098C17.146 75.7538 16.749 75.7028 16.291 75.6428C13.788 75.3148 9.13203 74.7048 5.45203 70.6238C2.09803 67.0078 1.07502 59.8528 0.969025 59.0478L0.964035 59.0048C0.925035 58.6628 -0.000976562 50.5418 -0.000976562 42.2688V34.5698C-0.000976562 26.3038 0.874026 18.1918 0.911026 17.8498L0.920029 17.7788C1.02803 16.9768 2.07503 9.8508 5.39403 6.2218C9.39003 1.7828 13.925 1.3228 16.106 1.1008C16.298 1.0808 16.476 1.06379 16.635 1.04279L16.761 1.02979C30.038 0.0107851 50.073 -0.0012207 50.275 -0.0012207H50.326C50.527 -0.0012207 70.562 0.0117851 83.84 1.02979L83.966 1.04279C84.125 1.06379 84.303 1.0808 84.495 1.1008C86.674 1.3218 91.205 1.7828 95.199 6.2128C98.553 9.8288 99.576 16.9838 99.682 17.7898L99.687 17.8328C99.726 18.1748 100.652 26.2918 100.677 34.5858V42.2938C100.677 50.5668 99.751 58.6888 99.712 59.0298L99.705 59.0828C99.597 59.8878 98.549 67.0358 95.227 70.6448C91.233 75.0798 86.7 75.5408 84.52 75.7618C84.327 75.7818 84.149 75.7988 83.99 75.8188L83.864 75.8318C70.588 76.8518 50.53 76.8888 50.329 76.8898L50.314 76.8888ZM18.37 70.3918C25.847 71.1208 49.586 71.3808 50.338 71.3888C50.995 71.3878 70.473 71.3398 83.385 70.3528C83.563 70.3318 83.756 70.3118 83.965 70.2908C85.801 70.1048 88.573 69.8228 91.151 66.9558L91.177 66.9268C93.002 64.9528 94.03 59.9988 94.252 58.3748C94.311 57.8608 95.178 50.0168 95.178 42.2948V34.5958C95.155 26.8358 94.282 18.9688 94.227 18.4868C93.907 16.1048 92.793 11.6978 91.161 9.94778L91.126 9.90979C88.549 7.04179 85.775 6.76079 83.94 6.57379C83.7465 6.55477 83.5532 6.53409 83.36 6.51178C70.294 5.51378 50.526 5.50079 50.327 5.50079H50.276C50.078 5.50079 30.309 5.51378 17.243 6.51178C17.0499 6.53414 16.8566 6.55482 16.663 6.57379C14.828 6.76079 12.056 7.04179 9.47704 9.90979L9.45802 9.93079C7.63002 11.9238 6.60302 16.8548 6.37602 18.4828C6.31402 19.0738 5.50102 26.8818 5.50102 34.5718V42.2708C5.50102 50.0198 6.37203 57.8688 6.42703 58.3538C6.74703 60.7348 7.86003 65.1428 9.49303 66.8928L9.52803 66.9318C11.85 69.5158 14.831 69.9068 17.007 70.1908C17.488 70.2518 17.946 70.3118 18.37 70.3918Z" fill="white"/>
<path d="M38.4331 20.5776V56.2856L68.1801 38.4316L38.4331 20.5776Z" fill="white"/>
</g>
<defs>
<clipPath id="clip0">
<rect width="100.678" height="76.891" fill="white" transform="translate(0 -0.000244141)"/>
</clipPath>
</defs>
</svg>

<svg width="101" height="77" fill="none" xmlns="http://www.w3.org/2000/svg"><g clip-path="url(#clip0)"><path d="M96.955 18.148s-.92-7.008-3.785-10.078c-3.632-4.041-7.674-4.066-9.541-4.297C70.303 2.75 50.326 2.75 50.326 2.75h-.051s-19.978 0-33.304 1.023c-1.867.23-5.908.256-9.54 4.297-2.84 3.096-3.786 10.078-3.786 10.078s-.896 8.21-.896 16.422v7.699c0 8.21.947 16.42.947 16.42s.921 7.01 3.785 10.079c3.632 4.04 8.364 3.913 10.487 4.349 7.622.767 32.356 1.022 32.356 1.022s20.003-.025 33.329-1.048c1.867-.23 5.908-.256 9.54-4.298 2.84-3.07 3.786-10.078 3.786-10.078s.946-8.21.946-16.421v-7.7c-.023-8.235-.97-16.446-.97-16.446z" fill="#38ADA9"/><path d="M50.314 76.889h-.016c-1.015-.011-24.946-.266-32.604-1.037l-.14-.014-.137-.028c-.271-.056-.668-.107-1.126-.167-2.503-.328-7.159-.938-10.839-5.02-3.354-3.615-4.377-10.77-4.483-11.575l-.005-.043c-.039-.342-.965-8.463-.965-16.736v-7.7c0-8.265.875-16.377.912-16.72l.009-.07c.108-.802 1.155-7.928 4.474-11.557 3.996-4.44 8.531-4.9 10.712-5.121.192-.02.37-.037.529-.058l.126-.013C30.038.01 50.073-.001 50.275-.001h.051c.201 0 20.236.013 33.514 1.03l.126.014c.159.02.337.038.529.058 2.179.22 6.71.682 10.704 5.112 3.354 3.616 4.377 10.77 4.483 11.577l.005.043c.039.342.965 8.459.99 16.753v7.708c0 8.273-.926 16.395-.965 16.736l-.007.053c-.108.805-1.156 7.953-4.478 11.562-3.994 4.435-8.527 4.896-10.707 5.117-.193.02-.371.037-.53.057l-.126.013c-13.276 1.02-33.334 1.057-33.535 1.058l-.015-.001zM18.37 70.392c7.477.729 31.216.989 31.968.997.657-.001 20.135-.05 33.047-1.036.178-.021.371-.041.58-.062 1.836-.186 4.608-.468 7.186-3.335l.026-.03c1.825-1.973 2.853-6.927 3.075-8.551.059-.514.926-8.358.926-16.08v-7.7c-.023-7.76-.896-15.626-.951-16.108-.32-2.382-1.434-6.79-3.066-8.54l-.035-.037c-2.577-2.868-5.351-3.15-7.186-3.336-.194-.02-.387-.04-.58-.062C70.294 5.514 50.526 5.5 50.327 5.5h-.051c-.198 0-19.967.013-33.033 1.01-.193.023-.386.044-.58.063-1.835.187-4.607.468-7.186 3.336l-.019.02c-1.828 1.994-2.855 6.925-3.082 8.553-.062.59-.875 8.399-.875 16.089v7.699c0 7.749.871 15.598.926 16.083.32 2.38 1.433 6.789 3.066 8.539l.035.039c2.322 2.584 5.303 2.975 7.479 3.259.481.06.939.12 1.363.2z" fill="#fff"/><path d="M38.433 20.578v35.708L68.18 38.432 38.433 20.578z" fill="#fff"/></g><defs><clipPath id="clip0"><path fill="#fff" d="M0 0h100.678v76.891H0z"/></clipPath></defs></svg>
